resources/images/wallets/arrows-dim.svg

<svg width="127" height="58" viewBox="0 0 127 58" fill="none" xmlns="http://www.w3.org/2000/svg">
<path d="M61.6113 8.0771L82.5005 29.125L69.1811 42.7775M61.8885 50.2524L65.0169 47.0458M98.8367 50.0877L119.449 28.9603L102.861 12.2467M100.306 9.67174L98.5595 7.9124" stroke="#1C51B1" stroke-width="2" stroke-linecap="round" stroke-linejoin="round"/>
<path d="M61.6113 8.07681L82.5005 29.1247L69.1811 42.7772M61.8885 50.2522L65.0169 47.0455" stroke="#1C51B1" stroke-width="2" stroke-linecap="round" stroke-linejoin="round"/>
<path d="M25.7873 32.0713L28.4976 29.3609L25.4132 26.3279M12.703 45.1556L1 56.8586H25.2896L52.3289 29.3609L25.2896 2.32157L1 2.32156L13.6179 14.7292M17.2754 18.3257L23.0397 23.9939M25.5794 8.24018L46.4686 29.2881L25.8566 50.4155M50.567 14.5649L65.4467 29.1967L37.9491 56.6943H49.5923" stroke="#1C51B1" stroke-width="2" stroke-linecap="round" stroke-linejoin="round"/>
<path d="M99.1056 31.5486L101.816 28.8382L98.7316 25.8052M86.0214 44.6328L74.3184 56.3358H98.608L125.647 28.8382L98.608 1.79883L74.3184 1.79883L86.9363 14.2064M90.5938 17.803L96.3581 23.4712M69.1155 9.03591L62.2378 2.15828L37.9482 2.15828L45.908 9.98538M78.1738 18.0943L73.8124 13.7328M81.2806 21.201L89.2772 29.1976L62.2378 56.6953H56.4079" stroke="#2079EE" stroke-width="2" stroke-linecap="round" stroke-linejoin="round"/>
<path d="M69.1164 9.03592L62.2388 2.15828L37.9492 2.15828L45.909 9.98539M78.1748 18.0943L73.8134 13.7328M81.2815 21.201L89.2781 29.1976L62.2388 56.6953H56.4089" stroke="#1C51B1" stroke-width="2" stroke-linecap="round" stroke-linejoin="round"/>
</svg>

<svg width="127" height="58" fill="none" xmlns="http://www.w3.org/2000/svg"><path d="m61.611 8.077 20.89 21.048-13.32 13.653m-7.292 7.474 3.128-3.206m33.82 3.042 20.612-21.128-16.588-16.713m-2.555-2.575-1.746-1.76" stroke="#1C51B1" stroke-width="2" stroke-linecap="round" stroke-linejoin="round"/><path d="m61.611 8.077 20.89 21.048-13.32 13.652m-7.292 7.475 3.128-3.207M25.787 32.071l2.71-2.71-3.084-3.033m-12.71 18.828L1 56.859h24.29L52.329 29.36 25.289 2.32H1L13.618 14.73m3.657 3.597 5.765 5.668M25.58 8.24l20.889 21.048-20.612 21.128m24.71-35.851 14.88 14.632-27.498 27.497h11.643" stroke="#1C51B1" stroke-width="2" stroke-linecap="round" stroke-linejoin="round"/><path d="m99.106 31.549 2.71-2.71-3.084-3.034m-12.71 18.828L74.317 56.336h24.29l27.039-27.498-27.039-27.04h-24.29l12.618 12.408m3.658 3.597 5.764 5.668M69.115 9.036l-6.877-6.878h-24.29l7.96 7.827m32.266 8.11-4.362-4.362m7.469 7.468 7.996 7.997-27.04 27.497h-5.83" stroke="#2079EE" stroke-width="2" stroke-linecap="round" stroke-linejoin="round"/><path d="M69.116 9.036 62.24 2.158h-24.29l7.96 7.827m32.266 8.11-4.362-4.362m7.468 7.468 7.997 7.997-27.04 27.497h-5.83" stroke="#1C51B1" stroke-width="2" stroke-linecap="round" stroke-linejoin="round"/></svg>
